X:1
T:All My Love
T:All my love
T:French title Bolero
T:Paul Durand
T:English:Mitchell Parish,French:Henri Contet,
C:Paul Durand
Z:All Rights Reserved
L:1/8
M:4/4
K:Eb
V:1 treble nm="Electric Piano"
%%MIDI program 4
V:1
"^Chorus:" e6 d2 ||S"B7" c8- | cDFA d3 c |"Eb" B8- | BB,EG c3 B |"Bb7" A8- | AB,DF B3 A |"Eb" G8- | %8
w: All my|love|* I give you all my|love|* the skies may fall my|love|* But I will still be|true|
w: Bo- le-|ro|* Dans la dou- ceur du|soir|* sous le ciel rouge et|noir|* Ou chan- tent les gui-|tares|
w: : *||||||||
 G4"Ab" e3 d |"Bb7" c8- | cDFA d3 c |"Eb" B8- | BB,EG c3 B |"Bb7" A8- | AB,DF c3 D |"Eb" E8- | %16
w: * All my|sighs|* will dis- ap- pear at|last|* now that you're here at|last|* my heart be- longs to|you|
w: * Bo- ler-|o|* si tu vous- lais dan-|ser|* dans mes deux bras ser-|ré|* qu'il fe- rait bon s'ai-|mer|
w: ||||||||
"Db7" E8 |"Eb" G8- |"Dm7" G8- |"C" G8- |"G7" G"C" =e2 d =Bc=E=A |"Dm7" G8- |"C" G8- | %23
w: |oh|||* dont you ev- er let me|go||
w: |viens|||* mon a- mour t'ap- pel- le|viens||
w: |||||||
"G7" G2"Ab7" A2"Dm7" =A2"G7" =B2 |"C" c4"Ab" e3 d |"Bb7" c8- | cDFA d3 c |"Eb" B8- | BB,EG c3 B | %29
w: * you thrill me|so I can|see|* as I re- call my|life|* I've wait- ed all my|
w: * dan- ser en-|core Bo- le-|ro|* Je gar- de- rai tou-|jours|* le sou- ve- nir du|
w: ||||||
"Bb7" A8- | AB,DF c3 D |"Eb" E4 G2 B2 | E4 G2 B2 |"Bb7" D4 F2 B2 |1 D4 F2 B2 | %35
w: life|* to give you all my|love ay ay|ay ay ay|ay ay ay|ay ay ay|
w: jour|* Ou j'ai dan- sé l'a-|mour Aie aie|aie aie aie|aie aie aie|aie aie aie|
w: ||||||
"Eb" E6"^To verse" z2 ||2 D4"^Last time" B2 B2 |"Eb" e8- | e4- e2 z2 |] %39
w: ay|ay ay ay|ay||
w: aie|aie aie aie|aie||
w: ||||
"Ebm" B2"^Verse" E_G B E2 =G | B2 E_G B E2 =G |"B" _c2 E_G =c E2 =G | _c2 E_G =cE =G2 | %43
w: Bow, ca bal ler- o and|tip your som- bre- ro to|your se- no- ri ta the|love ly Chi qui ta shes|
w: Comme dans un rê- ve la|nuit qui se lè- ve al-|lume u- ne flam- me au|fond de nos â- mes so-|
w: ||||
"Bb7" B4- B=AB z | d6 _c2 |"Ebm" B4- B =A2 B | e8 | B2 E_G c E2 =G | B2 E_G B E2 =G | %49
w: wai * ting so|long for|you * and your|song|while you are play ing her|heart will be sway- ing and|
w: leil * de tes|yeux ins-|tant * mer- veil-|leux|pour que je pren- ne ta|main dans la mien- ne dis-|
w: ||||||
"B" _c2 E_G =c E2 =G | _c2 EG =c E2 G |"Bb7" B4- B A2 B | d6 _c2 |"Bb" B2 A2"C" _G2"Bb7" F2 | %54
w: she will sur- ren- der her|kiss- es so ten- der to|you * she will|cling the|mo- ment that you|
w: moi quand tu dan- ses des|mots d' es- pé- rance dis-|moi * ton dé-|sir comme|un pre- mier sou-|
w: |||||
"Ebm" E4"Ab" e3 d!D.S.! |] %55
w: sing All my|
w: pir Bo- le-|
w: |

